X:1
T:Premier Livre de Pièces de Clavecin
T:Jean-Philippe Rameau
T:6. Sarabandes
T:Premier Livre de Pièces de Clavecin
C:Jean-Philippe Rameau
%%score { ( 1 4 ) | ( 2 3 ) }
L:1/8
Q:1/4=80
M:3/4
K:C
V:1 treble nm="Piano" snm="Pno."
V:4 treble 
V:2 bass 
V:3 bass 
V:1
 e3 e a2 | P^g3 b e2 | d2 Pc2 B2 |{B} c2 Bc A2 | e3 e a2 | P^g3 b e2 | d2 (fe) (dc) | B6 || %8
 B3 c d2 | c3 d e2 | A2 B3 c | P^G3 ^F E2 | e3 e a2 | d3 e Pc2- | cB{c} TB3 A | [CEA]6 | e3 e a2 | %17
 d3 e Pc2- | cB{c} TB3 A | A6 |:[K:A]"^2ème Sarabande"[Q:1/4=70] c2{B} A3 e | e3 f{e} d2 | %22
 c2 PB3 A |{A} TG3 F E2 | A2 B3 c | B3 cde | (d/c/) (B/A/){d} Tc3 ^d | e6 :: G2 PF3 E | %29
 [B,GB]3 BcA |{A} d2 Pc3 d | BABcdB | e2 Pd3 c |{c} f3 fge | a2 A3 B |{c} TB4 A2 :|[K:C] e3 e a2 | %37
 P^g3 b e2 | d2 Pc2 B2 |{B} c2 Bc A2 | e3 e a2 | P^g3 b e2 | d2 (fe) (dc) | B6 || B3 c d2 | %45
 c3 d e2 | A2 B3 c | P^G3 ^F E2 | e3 e a2 | d3 e Pc2- | cB{c} TB3 A | [CEA]6 | e3 e a2 | %53
 d3 e Pc2- | cB{c} TB3 A | A6 |] %56
V:2
 A,B, C3 D | z E2 ^G,2 A,- | A,4 z ^G, | A,6 | A,B, C3 D | z E2 ^G,2 A,- | A,2 ^G,2 A,2 | E,6 || %8
 E,^F,^G,A,B,G, | A,=G,=F,E,D,C, | F,E,D,C,B,,A,, | E,B,ED CB, | CB,A,=G,^F,E, | ^F,A,^G,E, A,2- | %14
 A,2 z2 D2 | A,E,^F,^G,A,B, | CB,A,G,^F,E, | ^F,A,^G,E, A,2- | A,2 z2 D2 | A,6 |:[K:A] A,2 C2 C,2 | %21
 F,4 G,2 | E4 ^D2 | E,2 E2 =D2 | z F2 G2 A | z2 E4 | A,2 G,2 [F,A,]2 | [E,G,]4 E,,2 :: E,4 E,,2 | %29
 D,,2 D,2 C,2 | z G, A,4 | E,2 E2 D2 | C2 F2 E2 | z2 z2 [E,-B,]2 | [E,A,]2 F,4 | E,4 z2 :| %36
[K:C] A,B, C3 D | z E2 ^G,2 A,- | A,4 z ^G, | A,6 | A,B, C3 D | z E2 ^G,2 A,- | A,2 ^G,2 A,2 | %43
 E,6 || E,^F,^G,A,B,G, | A,=G,=F,E,D,C, | F,E,D,C,B,,A,, | E,B,ED CB, | CB,A,=G,^F,E, | %49
 ^F,A,^G,E, A,2- | A,2 z2 D2 | A,E,^F,^G,A,B, | CB,A,G,^F,E, | ^F,A,^G,E, A,2- | A,2 z2 D2 | A,6 |] %56
V:3
 A,3 G, F,2 | E,2 D,2 C,2 | B,,2 C,D, E,2 | z2 E,2 A,,2 | A,3 G, F,2 | E,2 D,2 C,2 | B,,4 A,,2 | %7
 z2 z B,,- [E,,B,,]2 || x6 | x6 | x6 | x6 | x6 | x6 | D,2 [E,^G,]4 | x6 | x6 | x6 | D,2 [E,^G,]4 | %19
 z2 z E,- [A,,E,]2 |:[K:A] x6 | x6 | A,2 G,2 F,2 | x6 | C2 B,2 A,2 | G,4 E,2 | x6 | x6 :: x6 | x6 | %30
 B,,2 z2 A,,2 | x6 | x6 | D2 (D,4 | C,2) z2 D,2 | z2 E,,2 [A,,,A,,]2 :|[K:C] A,3 G, F,2 | %37
 E,2 D,2 C,2 | B,,2 C,D, E,2 | z2 E,2 A,,2 | A,3 G, F,2 | E,2 D,2 C,2 | B,,4 A,,2 | %43
 z2 z B,,- [E,,B,,]2 || x6 | x6 | x6 | x6 | x6 | x6 | D,2 [E,^G,]4 | x6 | x6 | x6 | D,2 [E,^G,]4 | %55
 z2 z E,- [A,,E,]2 |] %56
V:4
 x6 | x6 | x6 | x6 | x6 | x6 | x6 | z ^G- [EG]4 || x6 | x6 | x6 | x6 | x6 | x6 | x6 | x6 | x6 | %17
 x6 | x6 | z E- [CE]4 |:[K:A] x6 | z2 A2 B2 | x6 | x6 | x6 | x6 | x6 | z B-[GB]-[EGB]- [EGB]2 :: %28
 x6 | x6 | x6 | x6 | x6 | x6 | x6 | x6 :|[K:C] x6 | x6 | x6 | x6 | x6 | x6 | x6 | z ^G- [EG]4 || %44
 x6 | x6 | x6 | x6 | x6 | x6 | x6 | x6 | x6 | x6 | x6 | z E- [CE]4 |] %56

